Newaita/actions/24/mail-forward.svg

<svg height="24" viewBox="0 0 24 24" width="24" xmlns="http://www.w3.org/2000/svg"><g fill="#424242"><path d="m18.355469 16.558594v1.984375h-5.988281c-.273438 0-.496094-.21875-.496094-.496094v-.992187c0-.273438.222656-.496094.496094-.496094zm0 0"/><path d="m17.859375 20.03125v-4.960938l3.972656 2.480469zm0 0"/><path d="m19.84375 4.15625h-15.875c-1.097656 0-1.984375.886719-1.984375 1.984375v11.90625c0 1.101563.886719 1.984375 1.984375 1.984375h5.953125v-1.984375h-4.960937c-.550782 0-.992188-.441406-.992188-.992187v-9.703126l7.28125 6.472657c.375.332031.9375.332031 1.3125 0l7.28125-6.472657v5.734376h1.988281v-6.945313c0-1.097656-.886719-1.984375-1.988281-1.984375zm-14.265625 1.984375h12.65625l-6.328125 5.625zm0 0"/></g></svg>

<?xml version="1.0" encoding="UTF-8"?>
<svg xmlns="http://www.w3.org/2000/svg" xmlns:xlink="http://www.w3.org/1999/xlink" width="24px" height="24px" viewBox="0 0 24 24" version="1.1">
<g id="surface1">
<path style=" stroke:none;fill-rule:nonzero;fill:rgb(25.882354%,25.882354%,25.882354%);fill-opacity:1;" d="M 18.355469 16.558594 L 18.355469 18.542969 L 12.367188 18.542969 C 12.09375 18.542969 11.871094 18.324219 11.871094 18.046875 L 11.871094 17.054688 C 11.871094 16.78125 12.09375 16.558594 12.367188 16.558594 Z M 18.355469 16.558594 "/>
<path style=" stroke:none;fill-rule:nonzero;fill:rgb(25.882354%,25.882354%,25.882354%);fill-opacity:1;" d="M 17.859375 20.03125 L 17.859375 15.070312 L 21.832031 17.550781 Z M 17.859375 20.03125 "/>
<path style=" stroke:none;fill-rule:nonzero;fill:rgb(25.882354%,25.882354%,25.882354%);fill-opacity:1;" d="M 19.84375 4.15625 L 3.96875 4.15625 C 2.871094 4.15625 1.984375 5.042969 1.984375 6.140625 L 1.984375 18.046875 C 1.984375 19.148438 2.871094 20.03125 3.96875 20.03125 L 9.921875 20.03125 L 9.921875 18.046875 L 4.960938 18.046875 C 4.410156 18.046875 3.96875 17.605469 3.96875 17.054688 L 3.96875 7.351562 L 11.25 13.824219 C 11.625 14.15625 12.1875 14.15625 12.5625 13.824219 L 19.84375 7.351562 L 19.84375 13.085938 L 21.832031 13.085938 L 21.832031 6.140625 C 21.832031 5.042969 20.945312 4.15625 19.84375 4.15625 Z M 5.578125 6.140625 L 18.234375 6.140625 L 11.90625 11.765625 Z M 5.578125 6.140625 "/>
</g>
</svg>
